assets/img/braze_icons/star-01.svg

<svg fill="none" height="24" viewBox="0 0 24 24" width="24" xmlns="http://www.w3.org/2000/svg"><path d="m12.6456 1.77566c-.4084-.1947-.8828-.1947-1.2911 0-.3531.16832-.5477.46056-.6458.62088-.1015.16574-.2057.37687-.3072.58265l-2.15574 4.36729-4.82205.70481c-.22699.03313-.4599.06712-.64881.11255-.18276.04395-.52067.139-.78959.42284-.31109.32837-.45739.77958-.39817 1.22802.05119.3876.26904.6629.39124.8057.12631.1476.29496.3118.45933.4719l3.48779 3.3971-.82296 4.7983c-.03885.2262-.07871.4583-.09405.6521-.01484.1874-.02918.5383.15752.882.21595.3976.59983.6765 1.0447.7589.3846.0713.71389-.0508.88752-.1228.17955-.0745.38797-.1842.59113-.2911l4.31064-2.2669 4.3107 2.2669c.2032.1069.4116.2166.5911.2911.1737.072.5029.1941.8875.1228.4449-.0824.8288-.3613 1.0447-.7589.1867-.3437.1724-.6946.1576-.882-.0154-.1938-.0552-.4259-.0941-.6521l-.823-4.7983 3.4879-3.3972c.1643-.16.333-.3242.4593-.4718.1222-.1428.34-.4181.3912-.8057.0592-.44844-.0871-.89965-.3982-1.22802-.2689-.28384-.6068-.37889-.7895-.42284-.189-.04543-.4219-.07942-.6489-.11255l-4.822-.70481-2.1557-4.36721c-.1015-.2058-.2057-.41698-.3072-.58273-.0982-.16032-.2928-.45256-.6458-.62088z" fill="#801ed7"/></svg>

<svg width="24" height="24" viewBox="0 0 24 24" fill="none" xmlns="http://www.w3.org/2000/svg">
<path d="M12.6456 1.77566C12.2372 1.58096 11.7628 1.58096 11.3545 1.77566C11.0014 1.94398 10.8068 2.23622 10.7087 2.39654C10.6072 2.56228 10.503 2.77341 10.4015 2.97919L8.24576 7.34648L3.42371 8.05129C3.19672 8.08442 2.96381 8.11841 2.7749 8.16384C2.59214 8.20779 2.25423 8.30284 1.98531 8.58668C1.67422 8.91505 1.52792 9.36626 1.58714 9.8147C1.63833 10.2023 1.85618 10.4776 1.97838 10.6204C2.10469 10.768 2.27334 10.9322 2.43771 11.0923L5.9255 14.4894L5.10254 19.2877C5.06369 19.5139 5.02383 19.746 5.00849 19.9398C4.99365 20.1272 4.97931 20.4781 5.16601 20.8218C5.38196 21.2194 5.76584 21.4983 6.21071 21.5807C6.59531 21.652 6.9246 21.5299 7.09823 21.4579C7.27778 21.3834 7.4862 21.2737 7.68936 21.1668L12 18.8999L16.3107 21.1668C16.5139 21.2737 16.7223 21.3834 16.9018 21.4579C17.0755 21.5299 17.4047 21.652 17.7893 21.5807C18.2342 21.4983 18.6181 21.2194 18.834 20.8218C19.0207 20.4781 19.0064 20.1272 18.9916 19.9398C18.9762 19.746 18.9364 19.5139 18.8975 19.2877L18.0745 14.4894L21.5624 11.0922C21.7267 10.9322 21.8954 10.768 22.0217 10.6204C22.1439 10.4776 22.3617 10.2023 22.4129 9.8147C22.4721 9.36626 22.3258 8.91505 22.0147 8.58668C21.7458 8.30284 21.4079 8.20779 21.2252 8.16384C21.0362 8.11841 20.8033 8.08442 20.5763 8.05129L15.7543 7.34648L13.5986 2.97927C13.4971 2.77347 13.3929 2.56229 13.2914 2.39654C13.1932 2.23622 12.9986 1.94398 12.6456 1.77566Z" fill="#801ED7"/>
</svg>
